symbols/web/wysiwyg/materialsymbolsrounded/wysiwyg_wght100gradN25_48px.svg

<svg xmlns="http://www.w3.org/2000/svg" height="48" width="48"><path d="M11.3 39.4q-1.05 0-1.875-.825T8.6 36.7V11.3q0-1.1.825-1.9.825-.8 1.875-.8h25.4q1.1 0 1.9.8.8.8.8 1.9v25.4q0 1.05-.8 1.875t-1.9.825Zm0-1.1h25.4q.7 0 1.15-.45.45-.45.45-1.15v-23H9.7v23q0 .7.45 1.15.45.45 1.15.45Zm3.3-15.8q-.3 0-.45-.125Q14 22.25 14 22q0-.3.15-.45.15-.15.45-.15h18.75q.2 0 .35.175.15.175.15.425t-.15.375q-.15.125-.35.125Zm0 8q-.3 0-.45-.125Q14 30.25 14 30q0-.3.15-.45.15-.15.45-.15h10.75q.2 0 .35.175.15.175.15.425t-.15.375q-.15.125-.35.125Z"/></svg>

<svg xmlns="http://www.w3.org/2000/svg" height="48" width="48"><path d="M11.3 39.4Q10.25 39.4 9.425 38.575Q8.6 37.75 8.6 36.7V11.3Q8.6 10.2 9.425 9.4Q10.25 8.6 11.3 8.6H36.7Q37.8 8.6 38.6 9.4Q39.4 10.2 39.4 11.3V36.7Q39.4 37.75 38.6 38.575Q37.8 39.4 36.7 39.4ZM11.3 38.3H36.7Q37.4 38.3 37.85 37.85Q38.3 37.4 38.3 36.7V13.7H9.7V36.7Q9.7 37.4 10.15 37.85Q10.6 38.3 11.3 38.3ZM14.6 22.5Q14.3 22.5 14.15 22.375Q14 22.25 14 22Q14 21.7 14.15 21.55Q14.3 21.4 14.6 21.4H33.35Q33.55 21.4 33.7 21.575Q33.85 21.75 33.85 22Q33.85 22.25 33.7 22.375Q33.55 22.5 33.35 22.5ZM14.6 30.5Q14.3 30.5 14.15 30.375Q14 30.25 14 30Q14 29.7 14.15 29.55Q14.3 29.4 14.6 29.4H25.35Q25.55 29.4 25.7 29.575Q25.85 29.75 25.85 30Q25.85 30.25 25.7 30.375Q25.55 30.5 25.35 30.5Z"/></svg>
